icons/desktop/16/svg/quality-16.svg

<svg width="16" height="16" viewBox="0 0 16 16" fill="none" xmlns="http://www.w3.org/2000/svg">
<g clip-path="url(#clip0_8069_32700)">
<path d="M10.095 6.21899C10.388 5.92599 10.8635 5.92599 11.1565 6.21899C11.4491 6.51188 11.449 6.9866 11.1565 7.27954L8.34497 10.0911C8.06506 10.3699 7.69817 10.5099 7.33032 10.51C6.96332 10.51 6.5957 10.371 6.3147 10.092L4.84399 8.62036C4.55099 8.32736 4.55099 7.85184 4.84399 7.55884C5.13691 7.26594 5.61153 7.26611 5.90454 7.55884L7.37622 9.02954L10.095 6.21899Z" fill="black"/>
<path fill-rule="evenodd" clip-rule="evenodd" d="M6.05591 0.770752C7.1298 -0.303141 8.87069 -0.303141 9.94458 0.770752L10.677 1.50317H11.7122C13.2313 1.50326 14.4622 2.73401 14.4622 4.25317V5.28833L15.1946 6.02075C16.2682 7.09467 16.2684 8.83562 15.1946 9.90942L14.4622 10.6418V11.677C14.4621 13.1961 13.2312 14.4269 11.7122 14.427H10.677L9.94458 15.1594C8.87077 16.2332 7.12982 16.2331 6.05591 15.1594L5.32349 14.427H4.28833C2.76917 14.427 1.53842 13.1961 1.53833 11.677V10.6418L0.805908 9.90942C-0.267985 8.83553 -0.267985 7.09465 0.805908 6.02075L1.53833 5.28833V4.25317C1.53833 2.73396 2.76912 1.50317 4.28833 1.50317H5.32349L6.05591 0.770752ZM8.88403 1.8313C8.39593 1.34319 7.60456 1.34319 7.11646 1.8313L6.16431 2.78345C6.02368 2.924 5.83286 3.00316 5.63403 3.00317H4.28833C3.59754 3.00317 3.03833 3.56239 3.03833 4.25317V5.59888C3.03832 5.79771 2.95915 5.98852 2.8186 6.12915L1.86646 7.0813C1.37835 7.56941 1.37835 8.36077 1.86646 8.84888L2.8186 9.80005C2.95926 9.9407 3.03833 10.1324 3.03833 10.3313V11.677C3.03842 12.3677 3.5976 12.927 4.28833 12.927H5.63403L5.78052 12.9417C5.92484 12.9704 6.05872 13.0411 6.16431 13.1467L7.11646 14.0989C7.60458 14.5867 8.39601 14.5869 8.88403 14.0989L9.83521 13.1467L9.94946 13.053C10.0719 12.9713 10.2171 12.927 10.3665 12.927H11.7122C12.4028 12.9269 12.9621 12.3677 12.9622 11.677V10.3313C12.9622 10.1324 13.0412 9.9407 13.1819 9.80005L14.134 8.84888C14.6221 8.36085 14.6219 7.56943 14.134 7.0813L13.1819 6.12915C13.0412 5.98851 12.9622 5.79777 12.9622 5.59888V4.25317C12.9622 3.56244 12.4029 3.00326 11.7122 3.00317H10.3665C10.1675 3.00317 9.97586 2.9241 9.83521 2.78345L8.88403 1.8313Z" fill="black"/>
</g>
<defs>
<clipPath id="clip0_8069_32700">
<rect width="16" height="16" fill="white"/>
</clipPath>
</defs>
</svg>

<!-- This Source Code Form is subject to the terms of the Mozilla Public
   - License, v. 2.0. If a copy of the MPL was not distributed with this
   - file, You can obtain one at http://mozilla.org/MPL/2.0/. -->
<svg xmlns="http://www.w3.org/2000/svg" width="16" height="16" fill="context-fill" fill-opacity="context-fill-opacity" viewBox="0 0 16 16">
    <g clip-path="url(#clip0_8069_32700)">
        <path d="M10.095 6.219a.75.75 0 0 1 1.061 1.06l-2.811 2.812a1.437 1.437 0 0 1-2.03 0l-1.471-1.47a.75.75 0 0 1 1.06-1.062l1.472 1.47z" />
        <path fill-rule="evenodd" d="M6.056.77a2.75 2.75 0 0 1 3.889 0l.732.733h1.035a2.75 2.75 0 0 1 2.75 2.75v1.035l.733.733a2.75 2.75 0 0 1 0 3.888l-.733.733v1.035a2.75 2.75 0 0 1-2.75 2.75h-1.035l-.732.732a2.75 2.75 0 0 1-3.89 0l-.732-.732H4.288a2.75 2.75 0 0 1-2.75-2.75v-1.035l-.732-.733a2.75 2.75 0 0 1 0-3.888l.732-.733V4.253a2.75 2.75 0 0 1 2.75-2.75h1.035zm2.828 1.061a1.25 1.25 0 0 0-1.768 0l-.952.952a.75.75 0 0 1-.53.22H4.288c-.69 0-1.25.56-1.25 1.25V5.6a.75.75 0 0 1-.22.53l-.952.952a1.25 1.25 0 0 0 0 1.768l.953.951c.14.14.22.332.22.531v1.346c0 .69.559 1.25 1.25 1.25h1.345l.147.015a.75.75 0 0 1 .383.205l.952.952a1.25 1.25 0 0 0 1.768 0l.951-.952.114-.094a.75.75 0 0 1 .418-.126h1.345c.69 0 1.25-.56 1.25-1.25v-1.346c0-.199.08-.39.22-.53l.952-.952a1.25 1.25 0 0 0 0-1.768l-.952-.952a.75.75 0 0 1-.22-.53V4.253c0-.69-.56-1.25-1.25-1.25h-1.345a.75.75 0 0 1-.532-.22z" clip-rule="evenodd" />
    </g>
</svg>
